X:1
T:Title
%%score ( 1 2 ) { 3 | 4 }
L:1/8
Q:1/4=100
M:4/4
K:G
V:1 treble nm="Grand Piano, Soprano"
V:2 treble 
V:3 treble nm="Choir Pad, Ready (Taylor)"
V:4 treble 
V:1
 G [Gc]3 [Gc]2 [GB][Gc] | [Ae]2 A4 [Ad][Ac] | [Gc]2 [GB]2 [GA]2 [GB]2 | [Gc]6 [Gc][Gc] | %4
w: By~Ada~Rose~Gibbs~(1864\-1905) * * * *||||
 [Gd]2 [G^c]2 [G=c]2 [GB][GB] | [Gd]2 [Ge]2 [Gd]2 Bc | [Gd][GB]G[Gc] [GB]2 [FA]2 | G6 GG | %8
w: ||||
 [=FA]2 [FA][FA] [FA]2 [FA]2 | [=FB]2 [FB]4 [FB][FB] | [Gc]2 [Gc][Gc] [Gc]2 [Gc]2 | [Bd]6 [Bd]2 | %12
w: ||||
 [Bd]2 [Bd][Bd] de[Ad][Ac] | [GB]2 [Fc]2 [Gd]2 [Gd][Gd] | [=Fd][Fd] [FG]2 [Fd]2 [Fd]2 | [Ec]8 |] %16
w: ||||
V:2
 x8 | x8 | x8 | x8 | x8 | z4 z2 G2 | x8 | x8 | x8 | x8 | x8 | x8 | z4 A2 z2 | x8 | x8 | x8 |] %16
V:3
 E E3 E2 EE | D2 D4 DD | E2 C2 C2 D2 | E6 EE | =F2 E2 ^D2 =DD | B,2 C2 B,2 D2 | DDEE D2 C2 | %7
 B,6 B,B, | C2 C[K:treble]C C2 C2 | D2 D4 DD | E2 EE E2 E2 | G6 G2 | G2 GG F2 FF | D2 D2 D2 DD | %14
 B,B, B,2 B,2 B,2 | C8 |] %16
V:4
 C C3 C2 CC | =F,2 F,4 F,F, | G,2 G,2 G,2 G,2 | C6 CC | G,2 G,2[K:bass] G,2 G,G, | %5
 G,2 G,2 G,2 G,A, | B,B,CC z2 D,2 | G,6 G,G, | G,2 G,G, G,2 G,2 | G,2 G,4 G,G, | G,2 G,G, G,2 G,2 | %11
 G,6 G,2 | D,2 D,D, D,2 D,D, | G,2 A,2 B,2 B,B, | G,G, G,2 G,2 G,2 | C,8 |] %16

